src/assets/outline/Reserve.svg

<svg width="24" height="24" viewBox="0 0 24 24"  xmlns="http://www.w3.org/2000/svg">
<path d="M18.9702 22.75H4.97021C1.22021 22.75 1.22021 20.67 1.22021 19V18C1.22021 17.04 2.01021 16.25 2.97021 16.25H20.9702C21.9302 16.25 22.7202 17.04 22.7202 18V19C22.7202 20.67 22.7202 22.75 18.9702 22.75ZM2.97021 17.75C2.83021 17.75 2.72021 17.86 2.72021 18V19C2.72021 20.64 2.72021 21.25 4.97021 21.25H18.9702C21.2202 21.25 21.2202 20.64 21.2202 19V18C21.2202 17.86 21.1102 17.75 20.9702 17.75H2.97021Z" />
<path d="M20.72 17.75H3.27002C2.86002 17.75 2.52002 17.41 2.52002 17V13C2.52002 8.9 5.43002 5.3 9.43002 4.45C10.02 4.32 10.64 4.25 11.27 4.25H12.72C13.36 4.25 13.98 4.32 14.57 4.45C18.57 5.31 21.47 8.91 21.47 13V17C21.47 17.41 21.14 17.75 20.72 17.75ZM4.02002 16.25H19.97V13C19.97 9.61 17.57 6.63 14.25 5.91C13.76 5.8 13.25 5.75 12.72 5.75H11.27C10.75 5.75 10.24 5.8 9.75002 5.91C6.43002 6.62 4.02002 9.6 4.02002 13V16.25Z" />
<path d="M9.59 5.93C9.26 5.93 8.96 5.71 8.87 5.38C8.79 5.09 8.75 4.8 8.75 4.5C8.75 2.71 10.21 1.25 12 1.25C13.79 1.25 15.25 2.71 15.25 4.5C15.25 4.8 15.21 5.09 15.13 5.38C15.03 5.76 14.65 6 14.25 5.91C13.76 5.8 13.25 5.75 12.72 5.75H11.27C10.75 5.75 10.24 5.8 9.75 5.91C9.7 5.92 9.65 5.93 9.59 5.93ZM11.27 4.25H12.72C13.06 4.25 13.41 4.27 13.74 4.31C13.65 3.43 12.9 2.75 12 2.75C11.1 2.75 10.36 3.43 10.26 4.31C10.6 4.27 10.93 4.25 11.27 4.25Z" />
<path d="M15 11.75H9C8.59 11.75 8.25 11.41 8.25 11C8.25 10.59 8.59 10.25 9 10.25H15C15.41 10.25 15.75 10.59 15.75 11C15.75 11.41 15.41 11.75 15 11.75Z" />
</svg>

<?xml version="1.0" encoding="UTF-8"?>
<svg width="24" height="24" viewBox="0 0 24 24" xmlns="http://www.w3.org/2000/svg">
 <path d="m18.97 22.75h-14c-3.75 0-3.75-2.08-3.75-3.75v-1c0-0.96 0.79-1.75 1.75-1.75h18c0.96 0 1.75 0.79 1.75 1.75v1c0 1.67 0 3.75-3.75 3.75zm-16-5c-0.14 0-0.25 0.11-0.25 0.25v1c0 1.64 0 2.25 2.25 2.25h14c2.25 0 2.25-0.61 2.25-2.25v-1c0-0.14-0.11-0.25-0.25-0.25h-18z"/>
 <path d="m20.72 17.75h-17.45c-0.41 0-0.75-0.34-0.75-0.75v-4c0-4.1 2.91-7.7 6.91-8.55 0.58998-0.13 1.21-0.2 1.84-0.2h1.45c0.64 0 1.26 0.07 1.85 0.2 4 0.86 6.9 4.46 6.9 8.55v4c0 0.41-0.33 0.75-0.75 0.75zm-16.7-1.5h15.95v-3.25c0-3.39-2.4-6.37-5.72-7.09-0.49-0.11-1-0.16-1.53-0.16h-1.45c-0.52 0-1.03 0.05-1.52 0.16-3.32 0.71-5.73 3.69-5.73 7.09v3.25z"/>
 <path d="m9.59 5.93c-0.33 0-0.63-0.22-0.72-0.55-0.08-0.29-0.12-0.58-0.12-0.88 0-1.79 1.46-3.25 3.25-3.25s3.25 1.46 3.25 3.25c0 0.3-0.04 0.59-0.12 0.88-0.1 0.38-0.48 0.62-0.88 0.53-0.49-0.11-1-0.16-1.53-0.16h-1.45c-0.52 0-1.03 0.05-1.52 0.16-0.05 0.01-0.1 0.02-0.16 0.02zm1.68-1.68h1.45c0.34 0 0.69 0.02 1.02 0.06-0.09-0.88-0.84-1.56-1.74-1.56s-1.64 0.68-1.74 1.56c0.34-0.04 0.67-0.06 1.01-0.06z"/>
 <path d="m15 11.75h-6c-0.41 0-0.75-0.34-0.75-0.75s0.34-0.75 0.75-0.75h6c0.41 0 0.75 0.34 0.75 0.75s-0.34 0.75-0.75 0.75z"/>
</svg>
